manual/professional/deepin-album/zh_CN/icon/Esc.svg

<?xml version="1.0" encoding="iso-8859-1"?>
<!-- Generator: Adobe Illustrator 18.0.0, SVG Export Plug-In . SVG Version: 6.00 Build 0)  -->
<!DOCTYPE svg PUBLIC "-//W3C//DTD SVG 1.1//EN" "http://www.w3.org/Graphics/SVG/1.1/DTD/svg11.dtd">
<svg version="1.1" id="&#x56FE;&#x5C42;_1" xmlns="http://www.w3.org/2000/svg" xmlns:xlink="http://www.w3.org/1999/xlink" x="0px"
	 y="0px" viewBox="0 0 30 20" enable-background="new 0 0 30 20" xml:space="preserve">
<g>
	<path opacity="0.1" fill="#FFFFFF" d="M25.667,19.5H4.333c-2.108,0-3.833-1.725-3.833-3.833V4.333C0.5,2.225,2.225,0.5,4.333,0.5
		h21.334c2.108,0,3.833,1.725,3.833,3.833v11.334C29.5,17.775,27.775,19.5,25.667,19.5z"/>
	<path d="M13.981,12.627c0.528,0.37,1.098,0.554,1.708,0.554c0.817,0,1.226-0.259,1.226-0.777c0-0.221-0.089-0.402-0.268-0.546
		s-0.541-0.314-1.087-0.511c-0.657-0.256-1.083-0.508-1.28-0.758c-0.196-0.25-0.295-0.554-0.295-0.91
		c0-0.508,0.222-0.914,0.667-1.219C15.098,8.154,15.645,8,16.295,8c0.503,0,0.971,0.085,1.403,0.254v0.979
		c-0.443-0.276-0.944-0.415-1.505-0.415c-0.336,0-0.609,0.071-0.819,0.212c-0.211,0.142-0.316,0.328-0.316,0.56
		c0,0.228,0.076,0.406,0.228,0.534c0.152,0.128,0.488,0.292,1.009,0.492c0.66,0.238,1.107,0.485,1.339,0.741
		c0.232,0.256,0.348,0.572,0.348,0.948c0,0.525-0.222,0.94-0.667,1.242C16.87,13.85,16.295,14,15.588,14
		c-0.614,0-1.149-0.112-1.606-0.337V12.627z"/>
	<path d="M23.012,13.587c-0.435,0.259-0.96,0.389-1.574,0.389c-0.823,0-1.485-0.263-1.985-0.789
		c-0.501-0.526-0.751-1.207-0.751-2.043c0-0.929,0.27-1.676,0.81-2.245s1.263-0.853,2.168-0.853c0.521,0,0.967,0.092,1.337,0.277
		v0.993c-0.401-0.294-0.847-0.44-1.337-0.44c-0.576,0-1.045,0.2-1.407,0.597c-0.362,0.398-0.543,0.927-0.543,1.589
		c0,0.652,0.171,1.162,0.512,1.531s0.801,0.553,1.381,0.553c0.49,0,0.953-0.16,1.389-0.481V13.587z"/>
	<path fill="none" stroke="#CBCBCB" stroke-miterlimit="10" d="M25.5,19.5h-21c-2.209,0-4-1.791-4-4v-11c0-2.209,1.791-4,4-4h21
		c2.209,0,4,1.791,4,4v11C29.5,17.709,27.709,19.5,25.5,19.5z"/>
	<g>
		<path d="M13,14.108H8v-9h5v1H9v3h3v1H9v3h4V14.108z"/>
	</g>
</g>
</svg>

<?xml version="1.0" encoding="UTF-8"?>
<svg width="30px" height="20px" viewBox="0 0 30 20" version="1.1" xmlns="http://www.w3.org/2000/svg" xmlns:xlink="http://www.w3.org/1999/xlink">
    <!-- Generator: Sketch 64 (93537) - https://sketch.com -->
    <title>Esc</title>
    <desc>Created with Sketch.</desc>
    <g id="页面-1" stroke="none" stroke-width="1" fill="none" fill-rule="evenodd">
        <g id="Esc">
            <path d="M25.667,19.5 L4.333,19.5 C2.225,19.5 0.5,17.775 0.5,15.667 L0.5,4.333 C0.5,2.225 2.225,0.5 4.333,0.5 L25.667,0.5 C27.775,0.5 29.5,2.225 29.5,4.333 L29.5,15.667 C29.5,17.775 27.775,19.5 25.667,19.5 Z" id="路径" fill="#FFFFFF" fill-rule="nonzero"></path>
            <path d="M13.981,12.627 C14.509,12.997 15.079,13.181 15.689,13.181 C16.506,13.181 16.915,12.922 16.915,12.404 C16.915,12.183 16.826,12.002 16.647,11.858 C16.468,11.714 16.106,11.544 15.56,11.347 C14.903,11.091 14.477,10.839 14.28,10.589 C14.084,10.339 13.985,10.035 13.985,9.679 C13.985,9.171 14.207,8.765 14.652,8.46 C15.098,8.154 15.645,8 16.295,8 C16.798,8 17.266,8.085 17.698,8.254 L17.698,9.233 C17.255,8.957 16.754,8.818 16.193,8.818 C15.857,8.818 15.584,8.889 15.374,9.03 C15.163,9.172 15.058,9.358 15.058,9.59 C15.058,9.818 15.134,9.996 15.286,10.124 C15.438,10.252 15.774,10.416 16.295,10.616 C16.955,10.854 17.402,11.101 17.634,11.357 C17.866,11.613 17.982,11.929 17.982,12.305 C17.982,12.83 17.76,13.245 17.315,13.547 C16.87,13.85 16.295,14 15.588,14 C14.974,14 14.439,13.888 13.982,13.663 L13.982,12.627 L13.981,12.627 Z" id="路径" fill="#000000" fill-rule="nonzero"></path>
            <path d="M23.012,13.587 C22.577,13.846 22.052,13.976 21.438,13.976 C20.615,13.976 19.953,13.713 19.453,13.187 C18.952,12.661 18.702,11.98 18.702,11.144 C18.702,10.215 18.972,9.468 19.512,8.899 C20.052,8.33 20.775,8.046 21.68,8.046 C22.201,8.046 22.647,8.138 23.017,8.323 L23.017,9.316 C22.616,9.022 22.17,8.876 21.68,8.876 C21.104,8.876 20.635,9.076 20.273,9.473 C19.911,9.871 19.73,10.4 19.73,11.062 C19.73,11.714 19.901,12.224 20.242,12.593 C20.583,12.962 21.043,13.146 21.623,13.146 C22.113,13.146 22.576,12.986 23.012,12.665 L23.012,13.587 L23.012,13.587 Z" id="路径" fill="#000000" fill-rule="nonzero"></path>
            <path d="M25.5,19.5 L4.5,19.5 C2.291,19.5 0.5,17.709 0.5,15.5 L0.5,4.5 C0.5,2.291 2.291,0.5 4.5,0.5 L25.5,0.5 C27.709,0.5 29.5,2.291 29.5,4.5 L29.5,15.5 C29.5,17.709 27.709,19.5 25.5,19.5 Z" id="路径" stroke="#CBCBCB"></path>
            <polygon id="路径" fill="#000000" fill-rule="nonzero" points="13 14.108 8 14.108 8 5.108 13 5.108 13 6.108 9 6.108 9 9.108 12 9.108 12 10.108 9 10.108 9 13.108 13 13.108"></polygon>
        </g>
    </g>
</svg>
